resources/writer_pipeline.svg

<?xml version="1.0" encoding="UTF-8"?>
<svg xmlns="http://www.w3.org/2000/svg" xmlns:xlink="http://www.w3.org/1999/xlink" width="153pt" height="49pt" viewBox="0 0 153 49" version="1.1">
<defs>
<g>
<symbol overflow="visible" id="glyph0-0">
<path style="stroke:none;" d=""/>
</symbol>
<symbol overflow="visible" id="glyph0-1">
<path style="stroke:none;" d="M 7.421875 0 L 9.265625 -7.265625 L 8.21875 -7.265625 L 6.890625 -1.359375 L 5.234375 -7.265625 L 4.234375 -7.265625 L 2.625 -1.359375 L 1.25 -7.265625 L 0.21875 -7.265625 L 2.078125 0 L 3.09375 0 L 4.71875 -5.96875 L 6.40625 0 Z M 7.421875 0 "/>
</symbol>
<symbol overflow="visible" id="glyph0-2">
<path style="stroke:none;" d="M 0.6875 -5.21875 L 0.6875 0 L 1.53125 0 L 1.53125 -2.71875 C 1.53125 -3.453125 1.71875 -3.953125 2.109375 -4.234375 C 2.375 -4.421875 2.625 -4.484375 3.203125 -4.5 L 3.203125 -5.34375 C 3.0625 -5.359375 2.984375 -5.375 2.875 -5.375 C 2.34375 -5.375 1.9375 -5.046875 1.453125 -4.28125 L 1.453125 -5.21875 Z M 0.6875 -5.21875 "/>
</symbol>
<symbol overflow="visible" id="glyph0-3">
<path style="stroke:none;" d="M 1.5 -5.21875 L 0.671875 -5.21875 L 0.671875 0 L 1.5 0 Z M 1.5 -7.265625 L 0.65625 -7.265625 L 0.65625 -6.21875 L 1.5 -6.21875 Z M 1.5 -7.265625 "/>
</symbol>
<symbol overflow="visible" id="glyph0-4">
<path style="stroke:none;" d="M 2.53125 -5.21875 L 1.671875 -5.21875 L 1.671875 -6.65625 L 0.84375 -6.65625 L 0.84375 -5.21875 L 0.140625 -5.21875 L 0.140625 -4.546875 L 0.84375 -4.546875 L 0.84375 -0.59375 C 0.84375 -0.0625 1.203125 0.234375 1.859375 0.234375 C 2.046875 0.234375 2.25 0.203125 2.53125 0.15625 L 2.53125 -0.53125 C 2.421875 -0.515625 2.296875 -0.5 2.140625 -0.5 C 1.78125 -0.5 1.671875 -0.59375 1.671875 -0.96875 L 1.671875 -4.546875 L 2.53125 -4.546875 Z M 2.53125 -5.21875 "/>
</symbol>
<symbol overflow="visible" id="glyph0-5">
<path style="stroke:none;" d="M 5.109375 -2.328125 C 5.109375 -3.125 5.046875 -3.609375 4.90625 -4 C 4.5625 -4.859375 3.765625 -5.375 2.796875 -5.375 C 1.328125 -5.375 0.40625 -4.25 0.40625 -2.546875 C 0.40625 -0.828125 1.3125 0.234375 2.765625 0.234375 C 3.96875 0.234375 4.796875 -0.453125 5 -1.578125 L 4.171875 -1.578125 C 3.9375 -0.890625 3.46875 -0.53125 2.796875 -0.53125 C 2.265625 -0.53125 1.828125 -0.78125 1.546875 -1.21875 C 1.34375 -1.515625 1.28125 -1.8125 1.265625 -2.328125 Z M 1.28125 -3.015625 C 1.359375 -3.984375 1.9375 -4.609375 2.78125 -4.609375 C 3.59375 -4.609375 4.234375 -3.921875 4.234375 -3.078125 C 4.234375 -3.046875 4.234375 -3.03125 4.21875 -3.015625 Z M 1.28125 -3.015625 "/>
</symbol>
<symbol overflow="visible" id="glyph0-6">
<path style="stroke:none;" d="M 1.828125 -3.3125 L 5.296875 -3.3125 L 5.296875 -4.125 L 1.828125 -4.125 L 1.828125 -6.453125 L 5.765625 -6.453125 L 5.765625 -7.265625 L 0.890625 -7.265625 L 0.890625 0 L 1.828125 0 Z M 1.828125 -3.3125 "/>
</symbol>
<symbol overflow="visible" id="glyph0-7">
<path style="stroke:none;" d="M 1.515625 -7.265625 L 0.671875 -7.265625 L 0.671875 0 L 1.515625 0 Z M 1.515625 -7.265625 "/>
</symbol>
<symbol overflow="visible" id="glyph0-8">
<path style="stroke:none;" d="M 1.859375 -3.125 L 4.25 -3.125 C 5.078125 -3.125 5.4375 -2.734375 5.4375 -1.828125 L 5.4375 -1.1875 C 5.4375 -0.734375 5.515625 -0.296875 5.640625 0 L 6.765625 0 L 6.765625 -0.234375 C 6.421875 -0.46875 6.34375 -0.734375 6.328125 -1.6875 C 6.3125 -2.890625 6.125 -3.25 5.34375 -3.59375 C 6.15625 -3.984375 6.484375 -4.5 6.484375 -5.328125 C 6.484375 -6.578125 5.703125 -7.265625 4.28125 -7.265625 L 0.921875 -7.265625 L 0.921875 0 L 1.859375 0 Z M 1.859375 -3.953125 L 1.859375 -6.453125 L 4.09375 -6.453125 C 4.609375 -6.453125 4.921875 -6.375 5.140625 -6.171875 C 5.390625 -5.96875 5.515625 -5.625 5.515625 -5.1875 C 5.515625 -4.34375 5.078125 -3.953125 4.09375 -3.953125 Z M 1.859375 -3.953125 "/>
</symbol>
<symbol overflow="visible" id="glyph0-9">
<path style="stroke:none;" d="M 5.328125 -0.484375 C 5.25 -0.46875 5.203125 -0.46875 5.15625 -0.46875 C 4.859375 -0.46875 4.703125 -0.625 4.703125 -0.875 L 4.703125 -3.953125 C 4.703125 -4.875 4.03125 -5.375 2.734375 -5.375 C 1.984375 -5.375 1.359375 -5.15625 1 -4.765625 C 0.765625 -4.5 0.671875 -4.203125 0.640625 -3.671875 L 1.484375 -3.671875 C 1.5625 -4.3125 1.9375 -4.609375 2.71875 -4.609375 C 3.453125 -4.609375 3.875 -4.328125 3.875 -3.828125 L 3.875 -3.609375 C 3.875 -3.265625 3.671875 -3.109375 3.015625 -3.03125 C 1.828125 -2.875 1.65625 -2.84375 1.328125 -2.71875 C 0.734375 -2.46875 0.421875 -2 0.421875 -1.3125 C 0.421875 -0.375 1.078125 0.234375 2.140625 0.234375 C 2.796875 0.234375 3.3125 0 3.90625 -0.53125 C 3.96875 -0.015625 4.234375 0.234375 4.765625 0.234375 C 4.9375 0.234375 5.0625 0.203125 5.328125 0.140625 Z M 3.875 -1.640625 C 3.875 -1.359375 3.796875 -1.203125 3.546875 -0.96875 C 3.203125 -0.65625 2.796875 -0.5 2.3125 -0.5 C 1.671875 -0.5 1.28125 -0.8125 1.28125 -1.328125 C 1.28125 -1.890625 1.65625 -2.15625 2.546875 -2.296875 C 3.421875 -2.40625 3.59375 -2.453125 3.875 -2.578125 Z M 3.875 -1.640625 "/>
</symbol>
<symbol overflow="visible" id="glyph0-10">
<path style="stroke:none;" d="M 4.9375 -7.265625 L 4.109375 -7.265625 L 4.109375 -4.5625 C 3.765625 -5.09375 3.203125 -5.375 2.5 -5.375 C 1.140625 -5.375 0.265625 -4.28125 0.265625 -2.625 C 0.265625 -0.859375 1.125 0.234375 2.53125 0.234375 C 3.25 0.234375 3.75 -0.046875 4.203125 -0.6875 L 4.203125 0 L 4.9375 0 Z M 2.640625 -4.59375 C 3.53125 -4.59375 4.109375 -3.796875 4.109375 -2.546875 C 4.109375 -1.34375 3.53125 -0.546875 2.65625 -0.546875 C 1.734375 -0.546875 1.125 -1.359375 1.125 -2.578125 C 1.125 -3.78125 1.734375 -4.59375 2.640625 -4.59375 Z M 2.640625 -4.59375 "/>
</symbol>
<symbol overflow="visible" id="glyph0-11">
<path style="stroke:none;" d="M 1.828125 -3.3125 L 5.78125 -3.3125 L 5.78125 -4.125 L 1.828125 -4.125 L 1.828125 -6.453125 L 5.9375 -6.453125 L 5.9375 -7.265625 L 0.890625 -7.265625 L 0.890625 0 L 6.109375 0 L 6.109375 -0.8125 L 1.828125 -0.8125 Z M 1.828125 -3.3125 "/>
</symbol>
<symbol overflow="visible" id="glyph0-12">
<path style="stroke:none;" d="M 0.703125 -5.21875 L 0.703125 0 L 1.53125 0 L 1.53125 -2.875 C 1.53125 -3.953125 2.09375 -4.640625 2.953125 -4.640625 C 3.609375 -4.640625 4.03125 -4.25 4.03125 -3.625 L 4.03125 0 L 4.859375 0 L 4.859375 -3.953125 C 4.859375 -4.8125 4.203125 -5.375 3.203125 -5.375 C 2.421875 -5.375 1.921875 -5.078125 1.46875 -4.34375 L 1.46875 -5.21875 Z M 0.703125 -5.21875 "/>
</symbol>
<symbol overflow="visible" id="glyph0-13">
<path style="stroke:none;" d="M 2.84375 0 L 4.84375 -5.21875 L 3.90625 -5.21875 L 2.4375 -0.984375 L 1.03125 -5.21875 L 0.09375 -5.21875 L 1.9375 0 Z M 2.84375 0 "/>
</symbol>
</g>
</defs>
<g id="surface3673">
<g style="fill:rgb(0%,0%,0%);fill-opacity:1;">
  <use xlink:href="#glyph0-1" x="119.6455" y="44.517"/>
  <use xlink:href="#glyph0-2" x="129.050194" y="44.517"/>
  <use xlink:href="#glyph0-3" x="132.517179" y="44.517"/>
  <use xlink:href="#glyph0-4" x="134.728876" y="44.517"/>
  <use xlink:href="#glyph0-5" x="137.498479" y="44.517"/>
  <use xlink:href="#glyph0-2" x="143.037685" y="44.517"/>
</g>
<path style="fill:none;stroke-width:0.8;stroke-linecap:butt;stroke-linejoin:round;stroke:rgb(0%,0%,0%);stroke-opacity:1;stroke-miterlimit:10;" d="M 136 792 L 136 776 L 176 776 L 176 792 Z M 136 792 " transform="matrix(1,0,0,-1,-23,825)"/>
<g style="fill:rgb(0%,0%,0%);fill-opacity:1;">
  <use xlink:href="#glyph0-6" x="65.9315" y="44.517"/>
  <use xlink:href="#glyph0-3" x="72.018649" y="44.517"/>
  <use xlink:href="#glyph0-7" x="74.230346" y="44.517"/>
  <use xlink:href="#glyph0-4" x="76.442043" y="44.517"/>
  <use xlink:href="#glyph0-5" x="79.211646" y="44.517"/>
  <use xlink:href="#glyph0-2" x="84.750851" y="44.517"/>
</g>
<path style="fill:none;stroke-width:0.8;stroke-linecap:butt;stroke-linejoin:round;stroke:rgb(0%,0%,0%);stroke-opacity:1;stroke-miterlimit:10;" d="M 80 792 L 80 776 L 120 776 L 120 792 Z M 80 792 " transform="matrix(1,0,0,-1,-23,825)"/>
<path style="fill:none;stroke-width:0.8;stroke-linecap:butt;stroke-linejoin:round;stroke:rgb(0%,0%,0%);stroke-opacity:1;stroke-dasharray:1,3;stroke-miterlimit:10;" d="M 120 784 L 136 784 " transform="matrix(1,0,0,-1,-23,825)"/>
<path style="fill-rule:evenodd;fill:rgb(0%,0%,0%);fill-opacity:1;stroke-width:0.8;stroke-linecap:butt;stroke-linejoin:round;stroke:rgb(0%,0%,0%);stroke-opacity:1;stroke-miterlimit:10;" d="M 136 784 L 131 785.664062 L 131 782.335938 Z M 136 784 " transform="matrix(1,0,0,-1,-23,825)"/>
<path style="fill:none;stroke-width:0.8;stroke-linecap:butt;stroke-linejoin:round;stroke:rgb(0%,0%,0%);stroke-opacity:1;stroke-dasharray:1,3;stroke-miterlimit:10;" d="M 64 784 L 80 784 " transform="matrix(1,0,0,-1,-23,825)"/>
<path style="fill-rule:evenodd;fill:rgb(0%,0%,0%);fill-opacity:1;stroke-width:0.8;stroke-linecap:butt;stroke-linejoin:round;stroke:rgb(0%,0%,0%);stroke-opacity:1;stroke-miterlimit:10;" d="M 80 784 L 75 785.664062 L 75 782.335938 Z M 80 784 " transform="matrix(1,0,0,-1,-23,825)"/>
<g style="fill:rgb(0%,0%,0%);fill-opacity:1;">
  <use xlink:href="#glyph0-8" x="4.6665" y="44.517"/>
  <use xlink:href="#glyph0-5" x="11.859497" y="44.517"/>
  <use xlink:href="#glyph0-9" x="17.398703" y="44.517"/>
  <use xlink:href="#glyph0-10" x="22.937908" y="44.517"/>
  <use xlink:href="#glyph0-5" x="28.477114" y="44.517"/>
  <use xlink:href="#glyph0-2" x="34.01632" y="44.517"/>
</g>
<path style="fill:none;stroke-width:0.8;stroke-linecap:butt;stroke-linejoin:round;stroke:rgb(0%,0%,0%);stroke-opacity:1;stroke-miterlimit:10;" d="M 24 792 L 24 776 L 64 776 L 64 792 Z M 24 792 " transform="matrix(1,0,0,-1,-23,825)"/>
<g style="fill:rgb(0%,0%,0%);fill-opacity:1;">
  <use xlink:href="#glyph0-11" x="68.517" y="12.599"/>
  <use xlink:href="#glyph0-12" x="75.162054" y="12.599"/>
  <use xlink:href="#glyph0-13" x="80.502008" y="12.599"/>
</g>
<path style="fill:none;stroke-width:0.8;stroke-linecap:butt;stroke-linejoin:round;stroke:rgb(0%,0%,0%);stroke-opacity:1;stroke-miterlimit:10;" d="M 80 824 L 80 808 L 120 808 L 120 824 Z M 80 824 " transform="matrix(1,0,0,-1,-23,825)"/>
<path style="fill:none;stroke-width:0.8;stroke-linecap:butt;stroke-linejoin:round;stroke:rgb(0%,0%,0%);stroke-opacity:1;stroke-miterlimit:10;" d="M 44 792 L 44 816 L 80 816 " transform="matrix(1,0,0,-1,-23,825)"/>
<path style="fill-rule:evenodd;fill:rgb(0%,0%,0%);fill-opacity:1;stroke-width:0.8;stroke-linecap:butt;stroke-linejoin:round;stroke:rgb(0%,0%,0%);stroke-opacity:1;stroke-miterlimit:10;" d="M 80 816 L 73 818.332031 L 73 813.667969 Z M 80 816 " transform="matrix(1,0,0,-1,-23,825)"/>
<path style="fill:none;stroke-width:0.8;stroke-linecap:butt;stroke-linejoin:round;stroke:rgb(0%,0%,0%);stroke-opacity:1;stroke-miterlimit:10;" d="M 156 792 L 156 816 L 120 816 " transform="matrix(1,0,0,-1,-23,825)"/>
<path style="fill-rule:evenodd;fill:rgb(0%,0%,0%);fill-opacity:1;stroke-width:0.8;stroke-linecap:butt;stroke-linejoin:round;stroke:rgb(0%,0%,0%);stroke-opacity:1;stroke-miterlimit:10;" d="M 120 816 L 127 813.667969 L 127 818.332031 Z M 120 816 " transform="matrix(1,0,0,-1,-23,825)"/>
</g>
</svg>

<svg height="52pt" viewBox="0 0 155 52" width="206" xmlns="http://www.w3.org/2000/svg" xmlns:xlink="http://www.w3.org/1999/xlink">
  <style type="text/css">
    svg {
      background: #FFF;
      fill: #000;
    }

    symbol {
      fill: #000;
      stroke: none;
    }

    svg > path , g {
      stroke: #000;
    }

    @media (prefers-color-scheme: dark) {
      svg {
        background: #000;
        fill: #CCC;
      }
  
      symbol {
        fill: #CCC;
      }
  
      svg > path , g {
        stroke: #CCC;
      }
    }
  </style>
  <defs>
    <link href="_static/diagram.css" type="text/css" rel="stylesheet" 
          xmlns="http://www.w3.org/1999/xhtml"/>
  </defs>
  <symbol id="a" overflow="visible">
    <path d="M7.422 0l1.844-7.266H8.219L6.89-1.359 5.234-7.266h-1L2.625-1.359 1.25-7.266H.219L2.079 0h1.015l1.625-5.969L6.406 0zm0 0"/>
  </symbol>
  <symbol id="b" overflow="visible">
    <path d="M.688-5.219V0h.843v-2.719c0-.734.188-1.234.578-1.515.266-.188.516-.25 1.094-.266v-.844c-.14-.015-.219-.031-.328-.031-.531 0-.938.328-1.422 1.094v-.938zm0 0"/>
  </symbol>
  <symbol id="c" overflow="visible">
    <path d="M1.5-5.219H.672V0H1.5zm0-2.047H.656v1.047H1.5zm0 0"/>
  </symbol>
  <symbol id="d" overflow="visible">
    <path d="M2.531-5.219h-.86v-1.437H.845v1.437H.14v.672h.703v3.953c0 .531.36.828 1.015.828.188 0 .391-.03.672-.078V-.53c-.11.015-.234.031-.39.031-.36 0-.47-.094-.47-.469v-3.578h.86zm0 0"/>
  </symbol>
  <symbol id="e" overflow="visible">
    <path d="M5.11-2.328c0-.797-.063-1.281-.204-1.672-.343-.86-1.14-1.375-2.11-1.375-1.468 0-2.39 1.125-2.39 2.828 0 1.719.906 2.781 2.36 2.781C3.969.234 4.796-.453 5-1.578h-.828c-.234.687-.703 1.047-1.375 1.047a1.44 1.44 0 01-1.25-.688c-.203-.297-.266-.593-.281-1.11zm-3.83-.688c.078-.968.657-1.593 1.5-1.593.813 0 1.453.687 1.453 1.53 0 .032 0 .048-.015.063zm0 0"/>
  </symbol>
  <symbol id="f" overflow="visible">
    <path d="M1.828-3.313h3.469v-.812H1.828v-2.328h3.938v-.813H.89V0h.937zm0 0"/>
  </symbol>
  <symbol id="g" overflow="visible">
    <path d="M1.516-7.266H.672V0h.844zm0 0"/>
  </symbol>
  <symbol id="h" overflow="visible">
    <path d="M1.86-3.125h2.39c.828 0 1.188.39 1.188 1.297v.64c0 .454.078.891.203 1.188h1.125v-.234c-.344-.235-.422-.5-.438-1.454-.016-1.203-.203-1.562-.984-1.906.812-.39 1.14-.906 1.14-1.734 0-1.25-.78-1.938-2.203-1.938H.921V0h.938zm0-.828v-2.5h2.234c.515 0 .828.078 1.047.281.25.203.375.547.375.984 0 .844-.438 1.235-1.422 1.235zm0 0"/>
  </symbol>
  <symbol id="i" overflow="visible">
    <path d="M5.328-.484c-.078.015-.125.015-.172.015-.297 0-.453-.156-.453-.406v-3.078c0-.922-.672-1.422-1.969-1.422-.75 0-1.375.219-1.734.61-.234.265-.328.562-.36 1.093h.844c.079-.64.454-.937 1.235-.937.734 0 1.156.28 1.156.78v.22c0 .343-.203.5-.86.578-1.187.156-1.359.187-1.687.312-.594.25-.906.719-.906 1.406 0 .938.656 1.547 1.719 1.547.656 0 1.171-.234 1.765-.765.063.515.328.765.86.765.171 0 .296-.03.562-.093zM3.875-1.641c0 .282-.078.438-.328.672-.344.313-.75.469-1.235.469-.64 0-1.03-.313-1.03-.828 0-.563.374-.828 1.265-.969.875-.11 1.047-.156 1.328-.281zm0 0"/>
  </symbol>
  <symbol id="j" overflow="visible">
    <path d="M4.938-7.266h-.829v2.704c-.343-.532-.906-.813-1.609-.813-1.36 0-2.234 1.094-2.234 2.75 0 1.766.859 2.86 2.265 2.86.719 0 1.219-.282 1.672-.922V0h.734zM2.64-4.594c.89 0 1.468.797 1.468 2.047 0 1.203-.578 2-1.453 2-.922 0-1.531-.812-1.531-2.031 0-1.203.61-2.016 1.516-2.016zm0 0"/>
  </symbol>
  <symbol id="k" overflow="visible">
    <path d="M1.828-3.313h3.953v-.812H1.828v-2.328h4.11v-.813H.89V0h5.218v-.813H1.83zm0 0"/>
  </symbol>
  <symbol id="l" overflow="visible">
    <path d="M.703-5.219V0h.828v-2.875c0-1.078.563-1.766 1.422-1.766.656 0 1.078.391 1.078 1.016V0h.828v-3.953c0-.86-.656-1.422-1.656-1.422-.781 0-1.281.297-1.734 1.031v-.875zm0 0"/>
  </symbol>
  <symbol id="m" overflow="visible">
    <path d="M2.844 0l2-5.219h-.938L2.437-.984 1.032-5.22H.094L1.937 0zm0 0"/>
  </symbol>
  <use x="119.645" xlink:href="#a" y="44.517"/>
  <use x="129.05" xlink:href="#b" y="44.517"/>
  <use x="132.517" xlink:href="#c" y="44.517"/>
  <use x="134.729" xlink:href="#d" y="44.517"/>
  <use x="137.498" xlink:href="#e" y="44.517"/>
  <use x="143.038" xlink:href="#b" y="44.517"/>
  <path d="M113 33v16h40V33zm0 0" fill="none" stroke="#000" stroke-linejoin="round" stroke-miterlimit="10" stroke-width=".8"/>
  <use x="65.931" xlink:href="#f" y="44.517"/>
  <use x="72.019" xlink:href="#c" y="44.517"/>
  <use x="74.23" xlink:href="#g" y="44.517"/>
  <use x="76.442" xlink:href="#d" y="44.517"/>
  <use x="79.212" xlink:href="#e" y="44.517"/>
  <use x="84.751" xlink:href="#b" y="44.517"/>
  <g stroke="#000" stroke-linejoin="round" stroke-miterlimit="10" stroke-width=".8">
    <path d="M57 33v16h40V33zm0 0" fill="none"/>
    <path d="M97 41h16" fill="none" stroke-dasharray="1 3"/>
    <path d="M113 41l-5-1.664v3.328zm0 0" fill-rule="evenodd"/>
    <path d="M41 41h16" fill="none" stroke-dasharray="1 3"/>
    <path d="M57 41l-5-1.664v3.328zm0 0" fill-rule="evenodd"/>
  </g>
  <use x="4.667" xlink:href="#h" y="44.517"/>
  <use x="11.859" xlink:href="#e" y="44.517"/>
  <use x="17.399" xlink:href="#i" y="44.517"/>
  <use x="22.938" xlink:href="#j" y="44.517"/>
  <use x="28.477" xlink:href="#e" y="44.517"/>
  <use x="34.016" xlink:href="#b" y="44.517"/>
  <path d="M1 33v16h40V33zm0 0" fill="none" stroke="#000" stroke-linejoin="round" stroke-miterlimit="10" stroke-width=".8"/>
  <use x="68.517" xlink:href="#k" y="12.599"/>
  <use x="75.162" xlink:href="#l" y="12.599"/>
  <use x="80.502" xlink:href="#m" y="12.599"/>
  <g stroke="#000" stroke-linejoin="round" stroke-miterlimit="10" stroke-width=".8">
    <path d="M57 1v16h40V1zM21 33V9h36" fill="none"/>
    <path d="M57 9l-7-2.332v4.664zm0 0" fill-rule="evenodd"/>
    <path d="M133 33V9H97" fill="none"/>
    <path d="M97 9l7 2.332V6.668zm0 0" fill-rule="evenodd"/>
  </g>
</svg>
